!!!COM: Bach, Johann Sebastian
!!!OPR: Joh. Seb. Bachs vierstimmige Choralges‰nge
!!!XEN: Four-part Chorales
!!!OTL: 144. O Ewigkeit, du Donnerwort
!!!SCT: BWV 397
!!!SCA: Thematisch-systematisches Verzeichnis der musikalischen Werke Johann Sebastian Bach: Bach-Werke-Verzeichnis (Schmieder)
!!!YOR: Bach Gesellschaft Edition xxxix
!!!ENC: Steven Rasmussen
!!!CDT: 1685/3//-1750/7/28/
!!!OCY: Deutschland
!!!YEC: Copyright (c) 1994, 2000 Center for Computer Assisted Research in the Humanities
!!!YEM: Rights to all derivative editions reserved
!!!YEN: United States of America
**kern	**silbe	**kern	**kern	**silbe	**kern	**silbe
*I:[SOPRANO]	*I:[SOPRANO]	*I:[ALTO]	*I:[TENORE]	*I:[TENORE]	*I:[BASSO]	*I:[BASSO]
*>[A,A,B]	*	*>[A,A,B]	*>[A,A,B]	*	*>[A,A,B]	*
*>A	*	*>A	*>A	*	*>A	*
*clefG2	*	*clefG2	*clefGv2	*	*clefF4	*
*k[b-]	*	*k[b-]	*k[b-]	*	*k[b-]	*
*F:	*	*F:	*F:	*	*F:	*
*M4/4	*	*M4/4	*M4/4	*	*M4/4	*
=1-	=1-	=1-	=1-	=1-	=1-	=1-
(4.f	OO	4c	(4A	.	4FF	OO
.	.	8dL	4B-)	.	2F	E-E-
8g)	.	8eJ	.	.	.	.
4a	E-E-	4f	4c	.	.	.
4b-	-wig--wig-	4f	4d	.	4D	-wig--wig-
=2	=2	=2	=2	=2	=2	=2
4cc	-keit,-keit,	8fL	4c	.	4AA	-keit,-keit,
.	.	8gJ	.	.	.	.
4cc	duZeit	4a	4f	.	4A	.
4dd	Don-oh-	8aL	8fL	.	4Bn	.
.	.	8gJ	8gJ	.	.	.
4ee	-ner--ne	8b-L	8gL	.	8c#L	.
.	.	8aJ	8c#J	.	8AJ	.
=3	=3	=3	=3	=3	=3	=3
2ff;	-wort!Zeit!	2f;	2d;	.	2d;	.
4.f	OIch	4.d	4A	.	2D	.
.	.	.	4B-	.	.	.
8g	.	8e	.	.	.	.
=4	=4	=4	=4	=4	=4	=4
4a	Schwert,weiss	4f	4A	.	4d	.
4b-	dasvor	4g	4d	.	8cL	.
.	.	.	.	.	8B-J	.
4cc	durchgro-	8f#L	4e-	.	8AL	.
.	.	8gJ	.	.	8GJ	.
4cc	die-sser	4a	4d	.	8F#L	.
.	.	.	.	.	8DJ	.
=5	=5	=5	=5	=5	=5	=5
4b-	See-Trau-	8aL	4d	.	4G	.
.	.	8gJ	.	.	.	.
4a	-le-rig-	8gL	8cL	.	8AL	.
.	.	8fJ	8dJ	.	8B-J	.
2g;	bohrt!-keit	2c;	2e;	.	2c;	.
=6	=6	=6	=6	=6	=6	=6
2a	Onicht,	2c	4f	.	2F	.
.	.	.	4e-	.	.	.
4f	An-wo	8dL	4d	.	8B-L	.
.	.	8eJ	.	.	8cJ	.
4f	-fangich	4f	8dL	.	8B-L	.
.	.	.	8cJ	.	8AJ	.
=7	=7	=7	=7	=7	=7	=7
4b-	son-mich	8fL	8B-L	.	4G	.
.	.	8eJ	8cJ	.	.	.
4a	-derhin-	4f	4d	.	8DL	.
.	.	.	.	.	8CJ	.
2g	En--wen-	(4f	4d	.	(4BB-	.
.	.	4e)	8cL	.	4C)	.
.	.	.	8B-J	.	.	.
=8	=8	=8	=8	=8	=8	=8
1f;	-de!-de.	1c;	1A;	.	1FF;	.
=9:|!	=9:|!	=9:|!	=9:|!	=9:|!	=9:|!	=9:|!
*>B	*	*>B	*>B	*	*>B	*
2cc	Nimm	2f	8AL	Nimm	4.A	Nimm
.	.	.	8B-J	.	.	.
.	.	.	2c	du	.	.
.	.	.	.	.	8B-	.
4g	du	8fL	.	.	4c	du
.	.	8eJ	.	.	.	.
4a	mich,	8e-L	4c	mich,	4F#	mich,
.	.	8dJ	.	.	.	.
=10	=10	=10	=10	=10	=10	=10
4b-	wenn	4d	4B-	.	8GL	.
.	.	.	.	.	8FJ	.
4b-	es	4g	4B-	.	8E-L	.
.	.	.	.	.	8DJ	.
4.a	dir	4g	4e-	.	4C	.
.	.	4f#	8.dL	.	4D	.
8g	ge-	.	.	.	.	.
.	.	.	16cJk	.	.	.
=11	=11	=11	=11	=11	=11	=11
2g;	-f√§llt,	2d;	2B-;	.	2GG;	.
2cc	Herr	4.f	8AL	Herr	2AA	Herr
.	.	.	8cJ	.	.	.
.	.	.	[4f	Je-	.	.
.	.	8e-	.	.	.	.
=12	=12	=12	=12	=12	=12	=12
4dd	Je-	8dL	4f]	.	8BB-L	Je-
.	.	8fJ	.	.	8B-J	.
4ee	-su,	4b-	4g	-su,	8AL	-su,
.	.	.	.	.	8GJ	.
4ff	in	8aL	8fL	.	8dL	.
.	.	8gJ	8eJ	.	8DJ	.
4a	dein	4f	4d	.	8dL	.
.	.	.	.	.	8cJ	.
=13	=13	=13	=13	=13	=13	=13
4.g	Freu-	4f	4d	.	8B-L	.
.	.	.	.	.	8GJ	.
.	.	4e	8cL	.	8cL	.
8g	-den-	.	8B-J	.	8CJ	.
2f;	-zelt.	2c;	2A;	.	2F;	.
==|!	==|!	==|!	==|!	==|!	==|!	==|!
*-	*-	*-	*-	*-	*-	*-
!!!RWG: Key is interpreted using the Humdrum key tool.
!!!END: 1994/07/27
!!!EMD: Converted from MuseData to Humdrum Dec 19, 2000, by Andreas Kornstaedt using muse2kern.
!!!EED: Craig Stuart Sapp
!!!EEV: 2024/03/31
!!!ONB: Some non-unicode characters
